src/assets/wed_icon/icon_28/folder_default_primary.svg

<svg width="28" height="28" viewBox="0 0 28 28" fill="none" xmlns="http://www.w3.org/2000/svg">
<rect x="4" y="6" width="19" height="16" rx="3" fill="#4B3973"/>
<path d="M4 8V19C4 20.6569 5.34315 22 7 22H21C22.6569 22 24 20.6569 24 19V11.5C24 10.3954 23.1046 9.5 22 9.5H14.5704C13.9017 9.5 13.2772 9.1658 12.9063 8.6094L11.0937 5.8906C10.7228 5.3342 10.0983 5 9.42963 5H7C5.34315 5 4 6.34315 4 8Z" fill="#9360F9"/>
</svg>

<svg xmlns="http://www.w3.org/2000/svg" width="28" height="28" fill="none"><rect width="19" height="16" x="4" y="6" fill="#4B3973" rx="3"/><path fill="#9360F9" d="M4 8v11a3 3 0 0 0 3 3h14a3 3 0 0 0 3-3v-7.5a2 2 0 0 0-2-2h-7.43a2 2 0 0 1-1.664-.89l-1.812-2.72A2 2 0 0 0 9.43 5H7a3 3 0 0 0-3 3"/></svg>
